icon-themes/breeze_svg/cmd/lc_graphicfilterremovenoise.svg

<svg viewBox="0 0 24 24" xmlns="http://www.w3.org/2000/svg"><path d="m18.029297 5.4296875-.771485.6308594a11.000019 11 0 0 1 1.742188 5.9394531 11.000019 11 0 0 1 -1.75 5.931641l.783203.642578a12.000019 11.999998 0 0 0 1.966797-6.574219 12.000019 11.999998 0 0 0 -1.970703-6.5703125z" fill="#b3b3b3"/><path d="m11.988281 4-4.988281 3.9960938v1.0039062 7 .003906l4.988281 3.996094h.011719 1v-.470703-15.0585939-.4707031h-1zm.011719 1.2714844v13.4570316l-4-3.205078v-7.0468755zm3.689453 2.0742187-.78125.6386719a8.000012 7.9999986 0 0 1 1.091797 4.015625 8.000012 7.9999986 0 0 1 -1.089844 4.017578l.78125.640625a9.0000135 8.9999984 0 0 0 1.308594-4.658203 9.0000135 8.9999984 0 0 0 -1.310547-4.6542969zm-11.689453 1.6542969v6h2v-6z" fill="#4d4d4d"/></svg>

<svg xmlns="http://www.w3.org/2000/svg" viewBox="0 0 24 24">
 <path 
     style="fill:#b3b3b3" 
     d="M 18.029297 5.4296875 L 17.257812 6.0605469 A 11.000019 11 0 0 1 19 12 A 11.000019 11 0 0 1 17.25 17.931641 L 18.033203 18.574219 A 12.000019 11.999998 0 0 0 20 12 A 12.000019 11.999998 0 0 0 18.029297 5.4296875 z "
     />
 <path 
     style="fill:#4d4d4d" 
     d="M 11.988281 4 L 7 7.9960938 L 7 9 L 7 16 L 7 16.003906 L 11.988281 20 L 12 20 L 13 20 L 13 19.529297 L 13 4.4707031 L 13 4 L 12 4 L 11.988281 4 z M 12 5.2714844 L 12 18.728516 L 8 15.523438 L 8 8.4765625 L 12 5.2714844 z M 15.689453 7.3457031 L 14.908203 7.984375 A 8.000012 7.9999986 0 0 1 16 12 A 8.000012 7.9999986 0 0 1 14.910156 16.017578 L 15.691406 16.658203 A 9.0000135 8.9999984 0 0 0 17 12 A 9.0000135 8.9999984 0 0 0 15.689453 7.3457031 z M 4 9 L 4 15 L 6 15 L 6 9 L 4 9 z "
     />
 </svg>
